X:188 
T:Setting Sun Jig, The
F:file ID: cre.5/188sett_s
B:CRE5.048 (Ghrian ag Dul Faoi)
N:I added the second ending.
M:6/8
Q:160
R:jig
K:D
B|AFd AFd|AFD E2F|GFG Eed|cBc d2B|
AFd AFd|AFD E2F|GFG Eed|cBc dc:|
|:B|Adf agf|efg B2d|cec ABc|dAG FED|
Adf agf|efg B2d|cec ABc|1dfe dc:|\
[2 dfe d3-|d6||

%%%

